X:5064
T:Peggy Lettermore
O:england
R:polka
M:2/4
L:1/8
K:G
Bd BG|Bd d>A|Bd cB|A2 AG/A/|Bd BG|Bd g>e|dB cA|1 G2 G>A:|2 G2 Ge/f/||
|:g2 d>c|Bd de/f/|gd cB|A2 Ae/f/|gg d>c|Bc d>e|dc BA|1 G2 Ge/f/:|2 G2 G>A||


